X: 1090
T: Kitty of Oulart
R:double jig
N:"collected by F.O'Neill"
B:O'Neill's 1090
Z:Transcribed by henrik.norbeck@mailbox.swipnet.se
M:6/8
L:1/8
K:D
A/G/|FA(D F)ED|FA(D F)ED|GBG FAF|EFE EFG|
FA(D F)ED|FA(D F)ED|dcB AFA|DED D2:|
A|d2e Tf2d|edB TBAF|ABA ABd|efd edB|
d2e Tf2d|edB TBAF|dcB AFA|DED D2:|
A|d>cd efg|fed cBA|(B<d)B AFD|EFE E2A|
d>cd efg|fed cBA|(B<d)B AFA|DED D2:|


